!!!COM: Johannes Brahms
!!!CNT: Deutscher
!!!TXO: Deutsche
!!!OTL: Da2mmrung senkte sich von oben
!!!OPS: Op. 59
!!!ONM: No. 1
!!!LYR: Goethe
!!!ONB: Original key: Originaltonart
!!!ENC: Ayako Kataoka        
!!!EED: Leigh VanHandel
!!!YOR: C.F. Peters, Brahms Lieder fu2r eine Singstimme mit Klavierbegleitung, Band III, ausgabe fu2r tiefere Stimme
!!!ODT: 1871/
!!NB: Vocal melody and text only encoded.
**kern	**silbe
*clefG2	*
*k[b-e-]	*
*M3/8	*
*MM[adagio]	*
!! tempo indication: langsam
=5	=5
{4g	{Da2mm-
8g	-rung
=6	=6
4f#	senk-
8f#	-te
=7	=7
(8g	sich
8b-)	|
8cc	von
=8	=8
4dd	o-
8a	-ben,
=9	=9
4b-	schon
8b-	ist
=10	=10
(8b-	al-
8f)	|
8g	-le
=11	=11
4a	Na2-
8a	-he
=12	=12
4d}	fern,}
8r	.
=13	=13
{4b-	{doch
8cc	zu-
=14	=14
4a-	-erst
8f	em-
=15	=15
4e-	-por-
8f	-ge-
=16	=16
4d	-ho-
8B-	-ben
=17	=17
(8b-	hol-
8a-)	|
8g	-den
=18	=18
4f	Lichts
8g	der
=19	=19
(4a-	A-
[8g	|
=20	=20
8g])	|
4f#	-bend-
=21	=21
4g}	stern.}
8r	.
=25	=25
{4g	{Al-
8g	-les
=26	=26
4f#	schwankt
8f#	ins
=27	=27
(8g	Un-
8b-)	|
8cc	-ge-
=28	=28
4dd	-wis-
8a	-se,
=29	=29
4b-	Ne-
8b-	-bel
=30	=30
(8b-	schlei-
8f)	|
8g	-chen
=31	=31
4a	in
8a	die
=32	=32
4d}	Ho2h,}
8r	.
=32	=32
{4g	{schwarz-
8a-	-ver-
=33	=33
4f	-tief-
8d	-te
=34	=34
4c	Fin-
8d	-ster-
=35	=35
4Bn	-nis-
8G	-se
=36	=36
(8g	wi-
8f)	|
8e-	-der-
=37	=37
4d	-spie-
8g	-gelnd
=38	=38
(4b-	ruht
[8a	|
=39	=39
8a]	|
4f#)	der
=40	=40
4g}	See.}
8r	.
=45	=45
{4e-	{Nun
8e-	am
=46	=46
8.g	o2st-
16g	-li-
16g	-chen
16g	Be-
=47	=47
4b-	-rei-
8b-	-che
=48	=48
(8b-	ahn
8cc)	|
8b-	ich
=48	=48
8.a-	Mon-
16b-	-den-
[8cc	-glanz
=49	=49
8cc]	|
4dd	und
=60	=60
4ee-}	Glut,}
8r	.
=61	=61
{(8.f	{schlan-
16b-)	|
(16cc	-ker
16dd-)	|
=62	=62
(8.cc	Wei-
16a-)	|
(16g	-den
16f)	|
=63	=63
(8.g	Haar-
16cc)	|
(16ddn	-ge-
16ee-)	|
=64	=64
(8.dd	-zwei-
16b-)	|
(16an	-ge-
16g)	|
=65	=65
(8a	scher-
8dd)	|
8a	-zen
=66	=66
(8dd	auf
8b-)	|
8dd	der
=67	=67
(8b-	na2ch-
8g)	|
8b-	-sten
=68	=68
(8g-	Flut.
8en)}	|}
8r	.
=69	=69
*k[f#]	*
{4dd	{Durch
8ee	be-
=70	=70
4cc	-weg-
8a	-ter
=71	=71
4g	Schat-
8a	-ten
=72	=72
4f#	Spie-
8d	-le
=75	=75
(8dd	zit-
8cc)	|
8b	-tert
=76	=76
4a	Lu-
8a	-nas,
=77	=77
(8dd	Lu-
8cc)	|
8b	-nas
=78	=78
4.a	Zau-
=79	=79
4.b	-ber-
=80	=80
4cc}	-schein,}
8r	.
=81	=81
{4e	{und
8d	durchs
=82	=82
4c#	Au-
8g	-ge
=83	=83
4a	schleicht
8g	die
=84	=84
4f#	Ku2h-
8cc	-le
=85	=85
4cc	sa2nf-
8g	-ti-
=86	=86
4g	-gend
8e	ins
=87	=87
[4.d	Herz
=88	=88
4d]	|
8c	hin-
=89	=89
4B}	-ein,}
{8d	{durchs
=90	=90
4f#	Au-
8e	-ge
=91	=91
8r	.
8f#	schleicht
8g	die
=92	=92
4b	Ku2h-
8a	-le
=93	=93
4cc	sa2nf-
8g	-ti-
=94	=94
4g}	-gend,}
8r	.
=95	=95
{4g	{sa2nf-
8e-	-ti-
=96	=96
4e-	-gend
8c	ins
=97	=97
[4.B	Herz
=98	=98
4B]	|
8A	hin-
=99	=99
[4.G	-ein.
=100	=100
4G]}	|}
8r	.
*-	*-
